icons/ace.svg

<svg width="16" height="16" viewBox="0 0 16 16" fill="none" xmlns="http://www.w3.org/2000/svg">
<path fill-rule="evenodd" clip-rule="evenodd" d="M2 8C2 12.8392 3.16084 14 8 14C12.8392 14 14 12.8392 14 8C14 3.16084 12.8392 2 8 2C3.16084 2 2 3.16084 2 8ZM4 6V4L8.72727 8L4 12V10L6.54545 8L4 6ZM11.2727 10.6667H8.36364C7.96198 10.6667 7.63636 10.9651 7.63636 11.3333C7.63636 11.7015 7.96198 12 8.36364 12H11.2727C11.6744 12 12 11.7015 12 11.3333C12 10.9651 11.6744 10.6667 11.2727 10.6667Z" fill="#7C7CFF"/>
</svg>

<svg xmlns="http://www.w3.org/2000/svg" width="16" height="16" fill="none"><path fill="#7C7CFF" fill-rule="evenodd" d="M2 8c0 4.84 1.16 6 6 6s6-1.16 6-6-1.16-6-6-6-6 1.16-6 6Zm2-2V4l4.727 4L4 12v-2l2.545-2L4 6Zm7.273 4.667h-2.91c-.401 0-.727.298-.727.666 0 .368.326.667.728.667h2.909c.401 0 .727-.299.727-.667 0-.368-.326-.666-.727-.666Z" clip-rule="evenodd"/></svg>
